src/svg/business-card.svg

<svg version="1.2" baseProfile="tiny" xmlns="http://www.w3.org/2000/svg" width="24" height="24" viewBox="0 0 24 24"><g><path d="M20 20h-16c-1.654 0-3-1.346-3-3v-10c0-1.654 1.346-3 3-3h16c1.654 0 3 1.346 3 3v10c0 1.654-1.346 3-3 3zm-16-14c-.551 0-1 .449-1 1v10c0 .551.449 1 1 1h16c.551 0 1-.449 1-1v-10c0-.551-.449-1-1-1h-16zM10 15h-4c-.553 0-1-.448-1-1s.447-1 1-1h4c.553 0 1 .448 1 1s-.447 1-1 1zM10 11h-4c-.553 0-1-.448-1-1s.447-1 1-1h4c.553 0 1 .448 1 1s-.447 1-1 1z"/><circle cx="16" cy="10.5" r="2"/><path d="M16 13.356c-1.562 0-2.5.715-2.5 1.429 0 .357.938.715 2.5.715 1.466 0 2.5-.357 2.5-.715 0-.714-.98-1.429-2.5-1.429z"/></g></svg>

<?xml version="1.0" encoding="iso-8859-1"?>
<!-- Generator: Adobe Illustrator 16.2.1, SVG Export Plug-In . SVG Version: 6.00 Build 0)  -->
<svg version="1.2" baseProfile="tiny" xmlns="http://www.w3.org/2000/svg" xmlns:xlink="http://www.w3.org/1999/xlink" x="0px"
	 y="0px" width="24px" height="24px" viewBox="0 0 24 24" xml:space="preserve">
<g id="Layer_1">
	<g>
		<path d="M20,20H4c-1.654,0-3-1.346-3-3V7c0-1.654,1.346-3,3-3h16c1.654,0,3,1.346,3,3v10C23,18.654,21.654,20,20,20z M4,6
			C3.449,6,3,6.449,3,7v10c0,0.551,0.449,1,1,1h16c0.551,0,1-0.449,1-1V7c0-0.551-0.449-1-1-1H4z"/>
	</g>
	<g>
		<path d="M10,15H6c-0.553,0-1-0.448-1-1s0.447-1,1-1h4c0.553,0,1,0.448,1,1S10.553,15,10,15z"/>
	</g>
	<g>
		<path d="M10,11H6c-0.553,0-1-0.448-1-1s0.447-1,1-1h4c0.553,0,1,0.448,1,1S10.553,11,10,11z"/>
	</g>
	<g>
		<circle cx="16" cy="10.5" r="2"/>
	</g>
	<g>
		<g>
			<path d="M16,13.356c-1.562,0-2.5,0.715-2.5,1.429c0,0.357,0.938,0.715,2.5,0.715c1.466,0,2.5-0.357,2.5-0.715
				C18.5,14.071,17.52,13.356,16,13.356z"/>
		</g>
	</g>
</g>
<g id="nyt_x5F_exporter_x5F_info" display="none">
</g>
</svg>
